static/assets/images/exchanges/nile.svg

<svg width="307" height="256" viewBox="0 0 307 256" fill="none" xmlns="http://www.w3.org/2000/svg">
<path d="M153.308 0L118.515 36.9152L153.308 73.8304L188.101 36.9152L153.308 0Z" fill="#B8F2FA"/>
<path d="M37.0703 76.4928L0 38.912V224.371H43.8626V144.384C74.6266 170.19 108.276 192.341 144.136 210.394C187.464 232.184 233.73 247.547 281.481 256L286.418 224.371H307V84.608H263.137V204.8C228.408 196.575 194.756 184.324 162.864 168.294C157.478 165.606 152.246 162.854 147.181 160.038L147.143 160.026C106.618 137.644 69.5428 109.513 37.0703 76.5056V76.4928Z" fill="#B8F2FA"/>
</svg>

<svg xmlns="http://www.w3.org/2000/svg" fill="none" viewBox="0 0 307 256"><path fill="#B8F2FA" d="m153.308 0-34.793 36.915 34.793 36.915 34.793-36.915z"/><path fill="#B8F2FA" d="M37.07 76.493 0 38.912v185.459h43.863v-79.987a519.5 519.5 0 0 0 100.273 66.01A499.5 499.5 0 0 0 281.481 256l4.937-31.629H307V84.608h-43.863V204.8a458.6 458.6 0 0 1-100.273-36.506 399 399 0 0 1-15.683-8.256l-.038-.012A479.8 479.8 0 0 1 37.07 76.506z"/></svg>
